X: 48
T: Hand Game Song Concerning a Little Boy
N: Derived from pawnee48.krn
O: Oklahoma, U.S.A.
N: from Pawnee Music by Frances Densmore, 1926
Z: transcribed to **kern format by David Huron, August 2000
C: Skidi and Chaui Bands, 1919
L: 1/4
M: 3/4
Q: 1/4=88
K: E clef=treble
%%linebreak <none>
G [I:setbarnb 1]| 
G(E// D//) z/G[M:2/4] | 
G(E// D//) z/[M:3/4] | 
F/ E/ E/ D/D[M:2/4] | 
CC | 
CG,[M:3/4] | 
E/ E/ E/ D/D[M:2/4] | 
CC[M:3/4] | 
CG,



